Hatter-kde/actions/24/text_rotation.svg

<svg xmlns="http://www.w3.org/2000/svg" viewBox="0 0 24 24">
  <defs id="defs3051">
    <style type="text/css" id="current-color-scheme">
      .ColorScheme-Text {
        color:#363636;
      }
      .ColorScheme-Highlight {
        color:#3daee9;
      }
      </style>
  </defs>
 <path 
     style="fill:currentColor;fill-opacity:1;stroke:none" 
     d="M 15.666016 7.8945312 L 14.333984 11.666016 L 13 15.4375 L 13.943359 15.771484 L 14.396484 14.488281 A 4 4 0 0 0 16.771484 16.771484 A 4 4 0 0 0 21.875 14.333984 A 4 4 0 0 0 19.4375 9.2285156 A 4 4 0 0 0 16.15625 9.5117188 L 16.609375 8.2285156 L 15.666016 7.8945312 z M 6 8.4472656 A 4 4 0 0 0 2 12.447266 A 4 4 0 0 0 6 16.447266 A 4 4 0 0 0 9 15.085938 L 9 16.447266 L 10 16.447266 L 10 12.447266 L 10 8.4472656 L 9 8.4472656 L 9 9.8085938 A 4 4 0 0 0 6 8.4472656 z M 6 9.4472656 A 3 3 0 0 1 9 12.447266 A 3 3 0 0 1 6 15.447266 A 3 3 0 0 1 3 12.447266 A 3 3 0 0 1 6 9.4472656 z M 18.011719 10.001953 A 3 3 0 0 1 19.105469 10.171875 A 3 3 0 0 1 20.933594 14 A 3 3 0 0 1 17.105469 15.828125 A 3 3 0 0 1 15.275391 12 A 3 3 0 0 1 18.011719 10.001953 z "
     class="ColorScheme-Text"
     />
 <path 
     style="fill:currentColor;fill-opacity:1;stroke:none" 
     d="M 11 4 L 11 20 L 12 20 L 12 17.580078 L 21.359375 19.685547 L 21.591797 18.658203 L 12 16.5 L 12 4 L 11 4 z "
     class="ColorScheme-Highlight"
     />
</svg>

<?xml version="1.0" encoding="UTF-8"?>
<svg viewBox="0 0 24 24" xmlns="http://www.w3.org/2000/svg">
 <defs id="defs3051">
  <style id="current-color-scheme" type="text/css">.ColorScheme-Text {
        color:#363636;
      }
      .ColorScheme-Highlight {
        color:#3daee9;
      }</style>
 </defs>
 <path class="ColorScheme-Text" d="m15.666 7.8945-1.332 3.7715-1.334 3.7715 0.94336 0.33398 0.45312-1.2832a4 4 0 0 0 2.375 2.2832 4 4 0 0 0 5.1035-2.4375 4 4 0 0 0-2.4375-5.1055 4 4 0 0 0-3.2812 0.2832l0.45312-1.2832-0.94336-0.33398zm-9.666 0.55273a4 4 0 0 0-4 4 4 4 0 0 0 4 4 4 4 0 0 0 3-1.3613v1.3613h1v-4-4h-1v1.3613a4 4 0 0 0-3-1.3613zm0 1a3 3 0 0 1 3 3 3 3 0 0 1-3 3 3 3 0 0 1-3-3 3 3 0 0 1 3-3zm12.012 0.55469a3 3 0 0 1 1.0938 0.16992 3 3 0 0 1 1.8281 3.8281 3 3 0 0 1-3.8281 1.8281 3 3 0 0 1-1.8301-3.8281 3 3 0 0 1 2.7363-1.998z" fill="currentColor"/>
 <path class="ColorScheme-Highlight" d="m11 4v16h1v-2.4199l9.3594 2.1055 0.23242-1.0273-9.5918-2.1582v-12.5h-1z" fill="currentColor"/>
</svg>
